gtk/icons/scalable/actions/list-remove-all-symbolic.svg

<svg xmlns="http://www.w3.org/2000/svg" width="16" height="16" viewBox="0 0 16 16"><path fill="none" d="M12 10h3M4 11h2m3-4H1v8h8zm3 6h3m-3-6h3M1 4h14M1 1h14" class="foreground-stroke transparent-fill" style="fill:#000;fill-opacity:0;stroke:#241f31;stroke-width:2;stroke-linecap:round;stroke-linejoin:round;paint-order:stroke markers fill"/></svg>

<svg width='16' height='16'
     xmlns:gpa='https://www.gtk.org/grappa'
     gpa:version='1'
     gpa:keywords='remove item list'
     gpa:state='0'>
  <path d='M 12 10 L 15 10 M 4 11 L 6 11 M 9 7 L 1 7 L 1 15 L 9 15 Z M 12 13 L 15 13 M 12 7 L 15 7 M 1 4 L 15 4 M 1 1 L 15 1'
        id='path0'
        stroke-width='2'
        stroke-linecap='round'
        stroke-linejoin='round'
        stroke='rgb(0,0,0)'
        fill='none'
        class='foreground-stroke transparent-fill'/>
</svg>
